X: 77
T:Campbell's Farewell to Redcastle
M:2/4
L:1/8
R:March
K:A % 3 sharps
e|"A"A>B cd|ea e>d|cA AB/-c/|"G"d>B =GB|!
"A"A>B cd| ea e>d|"A"cB/-A/ "G"=
GB|"A"A2 {A}A :| !
 |: =g3/4f/4 |"A"ea a=g/-f/|ea e>d|"A"cA AB/-c/|1"G"d>B =Gg/-f/|!
ea a=g/-f/|ea ed|"A"cB/-A/ "G"=GB|A2 {A}A:||!
|2"G"d>B =GB|"A"(A/B/c/d/) (c/d/e/f/)|"A"(e/f/g/a/) e>-d|"A"cB/-A/ "G"=G
B
|"A"A2 {A}A||
% <A name="D1X078"></A>

